X: 21
T: HOGMANAY JIG
C: Andrew Rankine
R: jig
B: "The Complete Andrew Rankine Collection of Scottish Country Dance Tunes" p.26
Z: 2017 John Chambers <jc:trillian.mit.edu>
M: 6/8
L: 1/8
K: A
AB |:\
"A"c2c cdc | B2A A2B |\
c2c cBA | "Bm"G2F "B7"F3 |\
"E7"G2G GAG | F2E E2F |
[1 "E7"EGB e^de | "A"=d2c cAB :|\
[2 "E7"EGB dcB | "A"A3- A2 E |:\
"A"c2c "E"B2B | "F#m"A2A "E"G2G |\
"D"F2F "B7"FEF |
"E"G3- GEG | "Bm"d2d "A"c2c |\
[1 "E"B2B "F#m"A2A |\
"E"GAG "D"FGF | "A"E3- "E7"EDE :|\
[2 "Bm"BcB "B7"ABA | "E"GFE "E7"EFG | "A"A3- A3 |]

%%sep 1 1 500

